editor/icons/icon_texture_3_d.svg

<svg height="16" viewBox="0 0 16 16" width="16" xmlns="http://www.w3.org/2000/svg"><g fill="#e0e0e0"><path d="m2 1c-.5522847 0-1 .4477153-1 1v12c0 .552285.4477153 1 1 1h12c.552285 0 1-.447715 1-1v-12c0-.5522847-.447715-1-1-1zm1 2h10v8h-10z" fill-opacity=".99608" transform="translate(.359546 -.287637)"/><g fill-opacity=".996078" stroke-width=".203212" transform="scale(.9167105 1.0908569)"><path d="m5.8175194 8.9717502q-.2194689 0-.4633233-.032514-.2438544-.0243854-.4714519-.0731562-.2275974-.0487709-.4145524-.1056703-.1869551-.0568993-.2926253-.1056702l.2357259-1.0079315q.2113405.089413.5364797.1950835.3332677.097542.8209765.097542.5608651 0 .8209764-.2113404.2601114-.2113405.2601114-.5689936 0-.219469-.097542-.3657816-.089413-.1544415-.2519826-.2438547-.1625696-.0975418-.3901671-.1300557-.2194689-.0406424-.4714518-.0406424h-.4714519v-.9754176h.5364797q.1788266 0 .3413962-.032514.1706981-.032514.3007537-.1056703.1300557-.081285.203212-.2113404.081285-.1381842.081285-.3413962 0-.1544411-.065028-.2682398-.0650278-.1137987-.1706981-.186955-.0975417-.0731563-.2357259-.1056702-.1300557-.0406424-.2682398-.0406424-.3495247 0-.6502784.1056702-.2926253.1056703-.5364797.2601114l-.4308095-.8860043q.1300557-.0812848.3007538-.1706981.1788266-.0894133.390167-.1625696.2113405-.0731563.4470664-.1219272.2438544-.048771.5120943-.048771.4958373 0 .8534904.1219272.3657816.1137987.6015075.3332677.2357259.2113405.3495246.5039657.1137987.2844968.1137987.625893 0 .3332677-.186955.6502784-.186955.3088822-.5039657.4714518.4389379.1788266.6746638.5364797.2438544.3495246.2438544.8453619 0 .3901671-.1300557.7234347-.1300557.3251393-.406424.5689937-.2763683.235726-.7071777.3739101-.422681.1300557-1.0079316.1300557z"/><path d="m10.502445 7.817506q.08941.00813.203212.016257.121927 0 .284497 0 .951032 0 1.406227-.4795803.463323-.4795803.463323-1.3249422 0-.8860044-.438938-1.3411992-.438938-.4551949-1.38997-.4551949-.130055 0-.26824.00813-.138184 0-.260111.016257zm3.665945-1.7882655q0 .7315631-.227598 1.2761713-.227597.5446082-.650278.9022613-.414553.3576531-1.01606.5364797-.601508.1788265-1.349328.1788265-.341396 0-.796591-.032514-.4551948-.0243853-.8941328-.1137986v-5.486724q.438938-.081285.9103898-.1056702.47958-.032514.820976-.032514.723435 0 1.308686.1625696.593379.1625696 1.01606.5120943.422681.3495246.650278.8941328.227598.5446081.227598 1.3086853z"/></g></g></svg>

<?xml version="1.0" encoding="UTF-8" standalone="no"?>
<svg
   xmlns:dc="http://purl.org/dc/elements/1.1/"
   xmlns:cc="http://creativecommons.org/ns#"
   xmlns:rdf="http://www.w3.org/1999/02/22-rdf-syntax-ns#"
   xmlns:svg="http://www.w3.org/2000/svg"
   xmlns="http://www.w3.org/2000/svg"
   xmlns:sodipodi="http://sodipodi.sourceforge.net/DTD/sodipodi-0.dtd"
   xmlns:inkscape="http://www.inkscape.org/namespaces/inkscape"
   width="16"
   height="16"
   version="1.1"
   viewBox="0 0 16 16"
   id="svg6"
   sodipodi:docname="icon_texture_3_d.svg"
   inkscape:version="0.92.3 (2405546, 2018-03-11)">
  <metadata
     id="metadata12">
    <rdf:RDF>
      <cc:Work
         rdf:about="">
        <dc:format>image/svg+xml</dc:format>
        <dc:type
           rdf:resource="http://purl.org/dc/dcmitype/StillImage" />
        <dc:title></dc:title>
      </cc:Work>
    </rdf:RDF>
  </metadata>
  <defs
     id="defs10" />
  <sodipodi:namedview
     pagecolor="#ffffff"
     bordercolor="#666666"
     borderopacity="1"
     objecttolerance="10"
     gridtolerance="10"
     guidetolerance="10"
     inkscape:pageopacity="0"
     inkscape:pageshadow="2"
     inkscape:window-width="1853"
     inkscape:window-height="1016"
     id="namedview8"
     showgrid="false"
     inkscape:zoom="29.5"
     inkscape:cx="15.226978"
     inkscape:cy="9.4909723"
     inkscape:window-x="67"
     inkscape:window-y="27"
     inkscape:window-maximized="1"
     inkscape:current-layer="svg6" />
  <g
     id="g830"
     transform="translate(0.35954582,-0.28763666)">
    <path
       d="M 2,1 C 1.4477153,1 1,1.4477153 1,2 v 12 c 0,0.552285 0.4477153,1 1,1 h 12 c 0.552285,0 1,-0.447715 1,-1 V 2 C 15,1.4477153 14.552285,1 14,1 Z m 1,2 h 10 v 8 H 3 Z"
       id="path2"
       inkscape:connector-curvature="0"
       style="fill:#e0e0e0;fill-opacity:0.99607999"
       sodipodi:nodetypes="sssssssssccccc" />
  </g>
  <g
     aria-label="3D"
     transform="scale(0.9167105,1.0908569)"
     style="font-style:normal;font-variant:normal;font-weight:bold;font-stretch:normal;font-size:8.12847996px;line-height:1.25;font-family:Ubuntu;-inkscape-font-specification:'Ubuntu Bold';letter-spacing:0px;word-spacing:0px;fill:#e0e0e0;fill-opacity:0.99607843;stroke:none;stroke-width:0.20321201"
     id="text834">
    <path
       d="m 5.8175194,8.9717502 q -0.2194689,0 -0.4633233,-0.032514 Q 5.1103417,8.9148508 4.8827442,8.86608 4.6551468,8.8173091 4.4681918,8.7604097 4.2812367,8.7035104 4.1755665,8.6547395 L 4.4112924,7.646808 q 0.2113405,0.089413 0.5364797,0.1950835 0.3332677,0.097542 0.8209765,0.097542 0.5608651,0 0.8209764,-0.2113404 0.2601114,-0.2113405 0.2601114,-0.5689936 0,-0.219469 -0.097542,-0.3657816 Q 6.6628814,6.6388764 6.5003118,6.5494632 6.3377422,6.4519214 6.1101447,6.4194075 5.8906758,6.3787651 5.6386929,6.3787651 H 5.167241 V 5.4033475 h 0.5364797 q 0.1788266,0 0.3413962,-0.032514 0.1706981,-0.032514 0.3007537,-0.1056703 0.1300557,-0.081285 0.203212,-0.2113404 0.081285,-0.1381842 0.081285,-0.3413962 0,-0.1544411 -0.065028,-0.2682398 Q 6.5003118,4.3303881 6.3946415,4.2572318 6.2970998,4.1840755 6.1589156,4.1515616 6.0288599,4.1109192 5.8906758,4.1109192 q -0.3495247,0 -0.6502784,0.1056702 Q 4.9477721,4.3222597 4.7039177,4.4767008 L 4.2731082,3.5906965 Q 4.4031639,3.5094117 4.573862,3.4199984 4.7526886,3.3305851 4.964029,3.2574288 5.1753695,3.1842725 5.4110954,3.1355016 q 0.2438544,-0.048771 0.5120943,-0.048771 0.4958373,0 0.8534904,0.1219272 0.3657816,0.1137987 0.6015075,0.3332677 0.2357259,0.2113405 0.3495246,0.5039657 0.1137987,0.2844968 0.1137987,0.625893 0,0.3332677 -0.186955,0.6502784 -0.186955,0.3088822 -0.5039657,0.4714518 0.4389379,0.1788266 0.6746638,0.5364797 0.2438544,0.3495246 0.2438544,0.8453619 0,0.3901671 -0.1300557,0.7234347 Q 7.808997,8.22393 7.5326287,8.4677844 7.2562604,8.7035104 6.825451,8.8416945 6.40277,8.9717502 5.8175194,8.9717502 Z"
       style="fill:#e0e0e0;fill-opacity:0.99607843;stroke-width:0.20321201"
       id="path836" />
    <path
       d="m 10.502445,7.817506 q 0.08941,0.00813 0.203212,0.016257 0.121927,0 0.284497,0 0.951032,0 1.406227,-0.4795803 0.463323,-0.4795803 0.463323,-1.3249422 0,-0.8860044 -0.438938,-1.3411992 -0.438938,-0.4551949 -1.38997,-0.4551949 -0.130055,0 -0.26824,0.00813 -0.138184,0 -0.260111,0.016257 z M 14.16839,6.0292405 q 0,0.7315631 -0.227598,1.2761713 -0.227597,0.5446082 -0.650278,0.9022613 -0.414553,0.3576531 -1.01606,0.5364797 -0.601508,0.1788265 -1.349328,0.1788265 -0.341396,0 -0.796591,-0.032514 Q 9.6733402,8.86608 9.2344022,8.7766667 v -5.486724 q 0.438938,-0.081285 0.9103898,-0.1056702 0.47958,-0.032514 0.820976,-0.032514 0.723435,0 1.308686,0.1625696 0.593379,0.1625696 1.01606,0.5120943 0.422681,0.3495246 0.650278,0.8941328 0.227598,0.5446081 0.227598,1.3086853 z"
       style="fill:#e0e0e0;fill-opacity:0.99607843;stroke-width:0.20321201"
       id="path838" />
  </g>
</svg>
